common/svg/activity-icon.svg

<svg fill="none" height="20" viewBox="0 0 20 20" width="20" xmlns="http://www.w3.org/2000/svg"><path clip-rule="evenodd" d="m13.7064.162894c.3416.239397.4782.683477.3313 1.076826l-2.3462 6.28094 5.6378 1.52902c.3224.08742.571.34731.6469.6762.076.32892-.0331.67342-.2838.89632l-10.28638 9.1499c-.31208.2776-.77084.3044-1.11242.065-.34157-.2394-.47818-.6835-.33125-1.0768l2.34619-6.281-5.63787-1.529c-.32233-.0874-.57095-.3473-.6469-.6762-.07594-.32887.03312-.67337.28378-.89633l10.28645-9.14986c.3121-.2776008.7708-.3044132 1.1124-.065016zm-8.93425 9.461076 4.97053 1.34803c.24693.067.45432.2365.57102.4668.1166.2302.1316.4997.0412.7417l-1.41542 3.7891 6.28842-5.5936-4.9706-1.348c-.2469-.06697-.45433-.23654-.57097-.46679-.11663-.23025-.13159-.49969-.04118-.74172l1.41535-3.78907z" fill="#000" fill-rule="evenodd"/></svg>

<svg width="20" height="20" viewBox="0 0 20 20" fill="none" xmlns="http://www.w3.org/2000/svg">
<path fill-rule="evenodd" clip-rule="evenodd" d="M13.7064 0.162894C14.048 0.402291 14.1846 0.846371 14.0377 1.23972L11.6915 7.52066L17.3293 9.04968C17.6517 9.1371 17.9003 9.39699 17.9762 9.72588C18.0522 10.0548 17.9431 10.3993 17.6924 10.6222L7.40602 19.7721C7.09394 20.0497 6.63518 20.0765 6.2936 19.8371C5.95203 19.5977 5.81542 19.1536 5.96235 18.7603L8.30854 12.4793L2.67067 10.9503C2.34834 10.8629 2.09972 10.603 2.02377 10.2741C1.94783 9.94523 2.05689 9.60073 2.30755 9.37777L12.594 0.22791C12.9061 -0.0496908 13.3648 -0.0765032 13.7064 0.162894ZM4.77215 9.62397L9.74268 10.972C9.98961 11.039 10.197 11.2085 10.3137 11.4388C10.4303 11.669 10.4453 11.9385 10.3549 12.1805L8.93948 15.9696L15.2279 10.376L10.2573 9.028C10.0104 8.96103 9.80297 8.79146 9.68633 8.56121C9.5697 8.33096 9.55474 8.06152 9.64515 7.81949L11.0605 4.03042L4.77215 9.62397Z" fill="black"/>
</svg>
